X:1
T: The Bride is a Bonny Thing
C:
R:Jig
Q:180
K:A
M:6/8
L:1/16
|:e2A2A2 e2c2c2|f2B2B2 B2a2f2|e2A2A2 e2c2c2|e2A2A2 e2c2c2|
f2d2d2 e2c2c2|f2B2B2 B2a2f2|e2A2A2 e2c2c2|e2A2A2 A2a2f2:|
|:e4e2 fga2f2|=g4B2 B2c2d2|e4e2 fga2f2|e2c2e2 a2e2=g2|
|1f2d2f2 e2c2e2|f4B2 B2c2d2|e4e2 fga2f2|e4A2 A4cd:|
|2f2d2f2 e2c2e2|f4B2 B2c2d2|e4e2 fga2f2|e4A2 A2a2f2:|
